X:1
T:Passe-pî del neure poye
C:Traditionnel de Wallonie, fichier abc : Bernard Loffet
L:1/8
Q:240
M:3/4
K:C
 [A2A,,2] [AA,]A [AA,]A | [^G2E,,2] [EE,]^F [GE,]E | [A2A,,2] [AA,]^G [AA,]c | [B2G,,2] G,2 G,2 | \
 [c2C,,2] [cC,]e [dC,]c | [B2G,,2] [BG,]d [cG,]B | [AA,,]^G [AA,]c [BA,]A | [^G2E,,2] [EE,]^F [GE,]E | \
 [A2A,,2] [AA,]A [AA,]A | [^G2E,,2] [EE,]^F [GE,]E | [A2A,,2] [AA,]^G [AA,]c | [B2G,,2] G,2 G,2 | \
 [c2C,,2] [cC,]e [dC,]c | [B2G,,2] [BG,]d [cG,]B | [AA,,]^G [AA,]c [BE,]G | [A2A,,2] A,2 A,2 | \
|: [e2C,,2] [cC,]e [cC,]e | [d2G,,2] [BG,]d [BG,]d | [cA,,]B [AA,]B [cA,]d | [B2E,,2] E,2 [E2E,2] | \
 [A2A,,2] [AA,]^G [AA,]B | [c2A,,2] [A2A,2] [e2A,2] | [d2G,,2] [eG,]d [cG,]B | [A2A,,2] A,2 A,2 :| \
W:Created with TablEdit http://www.tabledit.com/ by Bernard Loffet
